img/icons/user/question.svg

<svg width="6" height="8" viewBox="0 0 6 8" fill="none" xmlns="http://www.w3.org/2000/svg">
<path d="M2.81507 5.20809C2.3687 5.20809 1.99089 4.84326 2.05911 4.40213C2.06975 4.33335 2.08201 4.27286 2.09589 4.22453C2.15525 4.01791 2.24315 3.8524 2.35959 3.72801C2.47603 3.60151 2.61872 3.48766 2.78767 3.38645C2.93379 3.2979 3.06393 3.21251 3.17808 3.13029C3.29452 3.04806 3.38584 2.96056 3.45205 2.86779C3.52055 2.77503 3.55479 2.66961 3.55479 2.55154C3.55479 2.44612 3.5274 2.35335 3.4726 2.27323C3.41781 2.19312 3.34361 2.13092 3.25 2.08664C3.15639 2.04237 3.05251 2.02023 2.93836 2.02023C2.81507 2.02023 2.70091 2.04658 2.59589 2.09929C2.49315 2.152 2.40982 2.22474 2.34589 2.31751C2.24179 2.47417 2.10094 2.64009 1.91284 2.64009H1.38103C0.895858 2.64009 0.468592 2.22242 0.675792 1.78372C0.722178 1.68551 0.777736 1.59462 0.842466 1.51106C1.06621 1.2201 1.36301 1.00716 1.73288 0.872222C2.10274 0.735178 2.50913 0.666656 2.95205 0.666656C3.44064 0.666656 3.87671 0.73307 4.26027 0.865898C4.64384 0.996616 4.94635 1.1948 5.16781 1.46046C5.38927 1.724 5.5 2.05396 5.5 2.45034C5.5 2.70545 5.45205 2.92999 5.35616 3.12396C5.26256 3.31582 5.13128 3.48555 4.96233 3.63313C4.79566 3.77861 4.60046 3.91144 4.37671 4.03162C4.21233 4.12017 4.0742 4.21188 3.96233 4.30676C3.85046 4.39953 3.76598 4.506 3.7089 4.62618C3.56678 4.92018 3.35856 5.20809 3.03201 5.20809H2.81507ZM2.84247 7.33332C2.57763 7.33332 2.35046 7.24793 2.16096 7.07716C1.97374 6.90427 1.88128 6.69449 1.88356 6.44781C1.88128 6.20745 1.97374 6.00189 2.16096 5.83111C2.35046 5.66033 2.57763 5.57494 2.84247 5.57494C3.09361 5.57494 3.31507 5.66033 3.50685 5.83111C3.70091 6.00189 3.79909 6.20745 3.80137 6.44781C3.79909 6.61226 3.75228 6.76195 3.66096 6.89689C3.57192 7.02972 3.45548 7.13619 3.31164 7.21631C3.16781 7.29432 3.01142 7.33332 2.84247 7.33332Z" fill="#8C8D92"/>
</svg>

<svg width="6" height="8" fill="none" xmlns="http://www.w3.org/2000/svg"><path d="M2.815 5.208c-.446 0-.824-.365-.756-.806.01-.069.023-.13.037-.177.06-.207.147-.373.264-.497.116-.126.259-.24.428-.342.146-.088.276-.173.39-.256.117-.082.208-.17.274-.262a.519.519 0 0 0 .103-.316.481.481 0 0 0-.082-.279.546.546 0 0 0-.223-.186.72.72 0 0 0-.312-.067.753.753 0 0 0-.342.08.67.67 0 0 0-.25.218c-.104.156-.245.322-.433.322H1.38c-.485 0-.912-.418-.705-.856.046-.098.102-.19.166-.273a1.94 1.94 0 0 1 .89-.639 3.49 3.49 0 0 1 1.22-.205c.489 0 .925.066 1.308.199.384.13.686.329.908.594.221.264.332.594.332.99 0 .255-.048.48-.144.674a1.61 1.61 0 0 1-.394.51 3.16 3.16 0 0 1-.585.398 2.4 2.4 0 0 0-.415.275.935.935 0 0 0-.253.32c-.142.293-.35.581-.677.581h-.217Zm.027 2.125a.983.983 0 0 1-.681-.256.814.814 0 0 1-.277-.63.795.795 0 0 1 .277-.616.983.983 0 0 1 .681-.256.97.97 0 0 1 .665.256c.194.17.292.376.294.617a.804.804 0 0 1-.14.449.968.968 0 0 1-.818.436Z" fill="#8C8D92"/></svg>
